!!!OTL: Der Mutter Rat (14b), S. 64
!!!id: T0124
**kern
*clefG2
*k[b-e-]
*B-:
{8f
=1
4b-
8d
4g
8f
=2
8f
8e-}
4.r
=3
{8cc
=4
4cc
16d
16d
4g
8f
=5
4d}
4.r
=6
{8f
=7
4dd
8cc
4b-
8g
=8
8g
8f}
4.r
=9
{8b-
=10
8a
8cc
8dd
4ee-
8a
=11
4b-}
4.r
=12
{8f
=13
4dd
8cc
4b-
8g
=14
8g
8f}
4.r
=15
{8b-
=16
8a
8cc
8dd
4ee-
8a
=17
4b-}
4.r
==
*-
!!!minrhy: 16
!!!meters: 6/8 ]  ZZ[6
!!!cut: Der Mutter Rat (14b), S. 64
!!!reg: Luxemburg
!!!trd: Singendes Volk, Esch-Alzette 1937 posth.
!!!rhy1: X_  X__X_X__X_  X_X_0__.
!!!rhy2: X_  X__XXX__X_  X__0__.
!!!key: T0124  16 Bb 6/8 ]  ZZ[6
!!!mod: HEPTATONIK IONISCH]  AMBITUS[9b
!!!kad: -4-3-51-51
!!!akz: 1-6-5_2-6-3_31-6_-741_31-6_-741_
!!!fot: 'a__b__c__d__c__d__
!!!for: 'a__b__a__c__a__c__
!!!fok: '^d_\__^__^__^__^__
!! PHRAS[AUFTAKTIG]
!!!fkt: "erz&auml;hlende Lieder"
!!!bem: Weidingen/Wiltz, hhh Johann Scheer, 15.7.1934
!! THILL, Mathias:
!! PR[30] 2K[6] 2G[18] 3K[4] 3G[0] 4A[0] 4Ü[0] 5A[2] 6K[0] 6G[0]
!! 7K[0] 7G[0] 8A[0] MEHR[0] SI[30] ABS[83] SR[24] SP[6]
!! ST[20] 2k[11] 2g[28] 3k[1] 3g[0] 4d[0] 4ü[0] 5d[0] 6k[0] 6g[0]
!! 7k[0] 7g[0] 8d[0] mehr[0] si[40] dm[-10] sr[39] sp[1]
!! 1F[70] 2F[21] 3F[0] 4F[0] LF[0] 2P[9] 3P[0] 4P[0] TRI[0] DF[3] AB[86]
!! TF[0] U3K[0] U3[0] U4[0] U4Ü[0] U5[0] U6K[0] U6[0] U7K[0] U7[0]
!! N1[2] N2K[0] N2[5] N3K[0] N3[7] N4[12] N4Ü[0] N5[36] N6K[0] N6[17]
!!!n7k: 0] N7[10] O1[10] O2K[0] O2[2] O3K[0] O3[0] HÖ[0
!!!RNB: symbol: &auml;      = a umlaut  (UTF-8: Å„)
